X: 1
T: Lucy Farr's
C: trad. Irish, English
O: arr. Andy Reiner
R: march, barn dance
S: https://www.patreon.com/posts/rustic-roots-27198819
Z: 2020 John Chambers <jc:trillian.mit.edu>
M: 4/4
L: 1/8
K: G
"^A"D<E |\
"G"G4 G3F | GABG E2D2 | B4 B3A | BcdB "D"A4 |
"G"BcdB G2G2- | GABG E2D2 | DEGA BddB | A2G2 [1 G2 :|[2 G3B- ||
"^B"|:\
"G"BcdB G2G2- | GABG E2D2 | DEGA BddB | "D"B2A2 A3B- |
"G"BcdB G2G2- | GABG E2D2 | DEGA BddB | "D"A2G2 "G"G2 :|
